actions/24/tab-new.svg

<?xml version="1.0" encoding="UTF-8" standalone="no"?>
<!-- Created with Inkscape (http://www.inkscape.org/) -->

<svg
   xmlns:dc="http://purl.org/dc/elements/1.1/"
   xmlns:cc="http://creativecommons.org/ns#"
   xmlns:rdf="http://www.w3.org/1999/02/22-rdf-syntax-ns#"
   xmlns:svg="http://www.w3.org/2000/svg"
   xmlns="http://www.w3.org/2000/svg"
   xmlns:xlink="http://www.w3.org/1999/xlink"
   xmlns:inkscape="http://www.inkscape.org/namespaces/inkscape"
   version="1.0"
   width="24"
   height="24"
   id="svg2">
  <defs
     id="defs4">
    <radialGradient
       cx="605.71429"
       cy="486.64789"
       r="117.14286"
       fx="605.71429"
       fy="486.64789"
       id="radialGradient10633"
       xlink:href="#linearGradient5060"
       gradientUnits="userSpaceOnUse"
       gradientTransform="matrix(0.0144583,0,0,0.00922486,14.121724,14.196945)" />
    <linearGradient
       id="linearGradient5060">
      <stop
         id="stop5062"
         style="stop-color:#000000;stop-opacity:1"
         offset="0" />
      <stop
         id="stop5064"
         style="stop-color:#000000;stop-opacity:0"
         offset="1" />
    </linearGradient>
    <radialGradient
       cx="605.71429"
       cy="486.64789"
       r="117.14286"
       fx="605.71429"
       fy="486.64789"
       id="radialGradient10631"
       xlink:href="#linearGradient5060"
       gradientUnits="userSpaceOnUse"
       gradientTransform="matrix(-0.0144583,0,0,0.00922486,11.148621,14.196945)" />
    <linearGradient
       id="linearGradient5048">
      <stop
         id="stop5050"
         style="stop-color:#000000;stop-opacity:0"
         offset="0" />
      <stop
         id="stop5056"
         style="stop-color:#000000;stop-opacity:1"
         offset="0.5" />
      <stop
         id="stop5052"
         style="stop-color:#000000;stop-opacity:0"
         offset="1" />
    </linearGradient>
    <linearGradient
       x1="302.85715"
       y1="366.64789"
       x2="302.85715"
       y2="609.50507"
       id="linearGradient10629"
       xlink:href="#linearGradient5048"
       gradientUnits="userSpaceOnUse"
       gradientTransform="matrix(0.04224852,0,0,0.00922486,-2.6346488,14.196926)" />
    <linearGradient
       id="linearGradient259">
      <stop
         id="stop260"
         style="stop-color:#fafafa;stop-opacity:1"
         offset="0" />
      <stop
         id="stop261"
         style="stop-color:#bbbbbb;stop-opacity:1"
         offset="1" />
    </linearGradient>
    <linearGradient
       x1="20.908833"
       y1="42.125"
       x2="20.908833"
       y2="17.249201"
       id="linearGradient5002"
       xlink:href="#linearGradient259"
       gradientUnits="userSpaceOnUse"
       gradientTransform="matrix(0.5114663,0,0,0.5173963,-0.2831826,-2.9719454)" />
    <linearGradient
       id="linearGradient2200">
      <stop
         id="stop2202"
         style="stop-color:#ffffff;stop-opacity:1"
         offset="0" />
      <stop
         id="stop2204"
         style="stop-color:#ffffff;stop-opacity:0"
         offset="1" />
    </linearGradient>
    <linearGradient
       x1="26.538"
       y1="22.765282"
       x2="29.267735"
       y2="45.015282"
       id="linearGradient4999"
       xlink:href="#linearGradient2200"
       gradientUnits="userSpaceOnUse"
       gradientTransform="matrix(0.4886024,0,0,0.3994216,0.2599271,1.2851346)" />
    <linearGradient
       id="linearGradient2264">
      <stop
         id="stop2266"
         style="stop-color:#d7e866;stop-opacity:1"
         offset="0" />
      <stop
         id="stop2268"
         style="stop-color:#8cab2a;stop-opacity:1"
         offset="1" />
    </linearGradient>
    <linearGradient
       x1="24.103895"
       y1="15.168831"
       x2="24.103895"
       y2="32.485161"
       id="linearGradient4996"
       xlink:href="#linearGradient2264"
       gradientUnits="userSpaceOnUse"
       gradientTransform="matrix(0.4691323,0,0,0.4663025,7.68994,7.808471)" />
    <linearGradient
       id="linearGradient4222">
      <stop
         id="stop4224"
         style="stop-color:#ffffff;stop-opacity:1"
         offset="0" />
      <stop
         id="stop4226"
         style="stop-color:#ffffff;stop-opacity:0"
         offset="1" />
    </linearGradient>
    <linearGradient
       x1="24.138529"
       y1="8.6973467"
       x2="24.138529"
       y2="47.272728"
       id="linearGradient4993"
       xlink:href="#linearGradient4222"
       gradientUnits="userSpaceOnUse"
       gradientTransform="matrix(0.2817955,0,0,0.2800956,12.18602,12.014894)" />
  </defs>
  <metadata
     id="metadata7">
    <rdf:RDF>
      <cc:Work
         rdf:about="">
        <dc:format>image/svg+xml</dc:format>
        <dc:type
           rdf:resource="http://purl.org/dc/dcmitype/StillImage" />
      </cc:Work>
    </rdf:RDF>
  </metadata>
  <g
     id="layer1">
    <g
       transform="matrix(1,0,0,1.339093,-0.6351739,-6.0401818)"
       id="g10624"
       style="opacity:0.5">
      <rect
         width="20.4"
         height="2.2403224"
         x="2.435174"
         y="17.579199"
         id="rect2879"
         style="opacity:0.40206185;fill:url(#linearGradient10629);fill-opacity:1;fill-rule:nonzero;stroke:none;stroke-width:1;marker:none;visibility:visible;display:inline;overflow:visible" />
      <path
         d="m 2.435174,17.579297 c 0,0 0,2.240198 0,2.240198 -0.7445669,0.0042 -1.8,-0.501914 -1.8,-1.120243 0,-0.618328 0.8308804,-1.119955 1.8,-1.119955 z"
         inkscape:connector-curvature="0"
         id="path2881"
         style="opacity:0.40206185;fill:url(#radialGradient10631);fill-opacity:1;fill-rule:nonzero;stroke:none;stroke-width:1;marker:none;visibility:visible;display:inline;overflow:visible" />
      <path
         d="m 22.835174,17.579297 c 0,0 0,2.240198 0,2.240198 0.744566,0.0042 1.8,-0.501914 1.8,-1.120243 0,-0.618328 -0.830881,-1.119955 -1.8,-1.119955 z"
         inkscape:connector-curvature="0"
         id="path2883"
         style="opacity:0.40206185;fill:url(#radialGradient10633);fill-opacity:1;fill-rule:nonzero;stroke:none;stroke-width:1;marker:none;visibility:visible;display:inline;overflow:visible" />
    </g>
    <path
       d="m 4.3164928,5.5893806 c -0.9822199,0 -1.7866109,0.8273696 -1.7866109,1.8316986 l 0,7.1072928 -1.75816535,0 c -0.15469934,0 -0.27171651,0.134448 -0.27171651,0.291035 l 0,3.389557 c 0,0.156588 0.11701717,0.291036 0.27171651,0.291036 l 22.44058245,0 c 0.154699,0 0.287699,-0.134447 0.2877,-0.291036 l 0,-3.389557 c 0,-0.156588 -0.133,-0.291035 -0.2877,-0.291035 l -1.716643,0 L 21.5,7.5000002 c 0,-1.458877 -0.613218,-2 -2,-2 l -15.1835072,0.08938 z"
       inkscape:connector-curvature="0"
       id="rect1316"
       style="fill:url(#linearGradient5002);fill-opacity:1;fill-rule:evenodd;stroke:#888a85;stroke-width:1.00000012;stroke-linecap:butt;stroke-linejoin:round;stroke-miterlimit:4;stroke-opacity:1;stroke-dasharray:none;stroke-dashoffset:0" />
    <path
       d="M 4.5978347,6.5249572 C 4.0324748,6.5249572 3.5,6.9098293 3.5,7.5384713 l 0,7.9365727 -1.9999998,0 0.045243,1.999999 20.9547578,0 -0.05626,-1.999999 -1.94374,0 0,-8.0000007 c -0.01965,-0.723569 -0.111914,-0.93822 -1,-0.93822 L 4.5978347,6.5249572 z"
       inkscape:connector-curvature="0"
       id="path1331"
       style="opacity:0.4;fill:none;stroke:url(#linearGradient4999);stroke-width:1;stroke-linecap:round;stroke-linejoin:miter;stroke-miterlimit:4;stroke-opacity:1;stroke-dasharray:none;stroke-dashoffset:0" />
    <path
       d="m 16.48946,16.500009 0,-3 4,0 0,3 3,0 0,4 -3,0 0,2.999991 -4,0 0,-2.999991 -2.98946,0 0,-4 2.98946,0 z"
       inkscape:connector-curvature="0"
       id="path7096"
       style="fill:url(#linearGradient4996);fill-opacity:1;fill-rule:evenodd;stroke:#699536;stroke-width:1;stroke-linecap:butt;stroke-linejoin:round;stroke-miterlimit:4;stroke-opacity:1;stroke-dasharray:none;display:inline" />
    <path
       d="m 17.48946,17.500009 0,-3 2,0 0,3 3,0 0,2 -3,0 0,3 -2,0 0,-3 -3,0 0,-2 3,0 z"
       inkscape:connector-curvature="0"
       id="path7098"
       style="opacity:0.4;fill:none;stroke:url(#linearGradient4993);stroke-width:1;stroke-linecap:butt;stroke-linejoin:miter;stroke-miterlimit:4;stroke-opacity:1;stroke-dasharray:none;display:inline" />
  </g>
</svg>

<?xml version="1.0" encoding="UTF-8" standalone="no"?>
<!-- Created with Inkscape (http://www.inkscape.org/) -->
<svg
   xmlns:dc="http://purl.org/dc/elements/1.1/"
   xmlns:cc="http://creativecommons.org/ns#"
   xmlns:rdf="http://www.w3.org/1999/02/22-rdf-syntax-ns#"
   xmlns:svg="http://www.w3.org/2000/svg"
   xmlns="http://www.w3.org/2000/svg"
   xmlns:xlink="http://www.w3.org/1999/xlink"
   xmlns:sodipodi="http://sodipodi.sourceforge.net/DTD/sodipodi-0.dtd"
   xmlns:inkscape="http://www.inkscape.org/namespaces/inkscape"
   width="24"
   height="24"
   id="svg2"
   sodipodi:version="0.32"
   inkscape:version="0.46"
   version="1.0"
   sodipodi:docname="tab-new.svg"
   inkscape:output_extension="org.inkscape.output.svg.inkscape">
  <defs
     id="defs4">
    <radialGradient
       inkscape:collect="always"
       xlink:href="#linearGradient5060"
       id="radialGradient10633"
       gradientUnits="userSpaceOnUse"
       gradientTransform="matrix(1.4458305e-2,0,0,9.2248566e-3,14.121724,14.196945)"
       cx="605.71429"
       cy="486.64789"
       fx="605.71429"
       fy="486.64789"
       r="117.14286" />
    <linearGradient
       id="linearGradient5060"
       inkscape:collect="always">
      <stop
         id="stop5062"
         offset="0"
         style="stop-color:black;stop-opacity:1;" />
      <stop
         id="stop5064"
         offset="1"
         style="stop-color:black;stop-opacity:0;" />
    </linearGradient>
    <radialGradient
       inkscape:collect="always"
       xlink:href="#linearGradient5060"
       id="radialGradient10631"
       gradientUnits="userSpaceOnUse"
       gradientTransform="matrix(-1.4458302e-2,0,0,9.2248566e-3,11.148621,14.196945)"
       cx="605.71429"
       cy="486.64789"
       fx="605.71429"
       fy="486.64789"
       r="117.14286" />
    <linearGradient
       id="linearGradient5048">
      <stop
         id="stop5050"
         offset="0"
         style="stop-color:black;stop-opacity:0;" />
      <stop
         style="stop-color:black;stop-opacity:1;"
         offset="0.5"
         id="stop5056" />
      <stop
         id="stop5052"
         offset="1"
         style="stop-color:black;stop-opacity:0;" />
    </linearGradient>
    <linearGradient
       inkscape:collect="always"
       xlink:href="#linearGradient5048"
       id="linearGradient10629"
       gradientUnits="userSpaceOnUse"
       gradientTransform="matrix(4.2248521e-2,0,0,9.2248566e-3,-2.6346488,14.196926)"
       x1="302.85715"
       y1="366.64789"
       x2="302.85715"
       y2="609.50507" />
    <linearGradient
       id="linearGradient259">
      <stop
         id="stop260"
         offset="0.0000000"
         style="stop-color:#fafafa;stop-opacity:1.0000000;" />
      <stop
         id="stop261"
         offset="1.0000000"
         style="stop-color:#bbbbbb;stop-opacity:1.0000000;" />
    </linearGradient>
    <linearGradient
       inkscape:collect="always"
       xlink:href="#linearGradient259"
       id="linearGradient5002"
       gradientUnits="userSpaceOnUse"
       gradientTransform="matrix(0.5114663,0,0,0.5173963,-0.2831826,-2.9719454)"
       x1="20.908833"
       y1="42.125"
       x2="20.908833"
       y2="17.249201" />
    <linearGradient
       inkscape:collect="always"
       id="linearGradient2200">
      <stop
         style="stop-color:#ffffff;stop-opacity:1;"
         offset="0"
         id="stop2202" />
      <stop
         style="stop-color:#ffffff;stop-opacity:0;"
         offset="1"
         id="stop2204" />
    </linearGradient>
    <linearGradient
       inkscape:collect="always"
       xlink:href="#linearGradient2200"
       id="linearGradient4999"
       gradientUnits="userSpaceOnUse"
       gradientTransform="matrix(0.4886024,0,0,0.3994216,0.2599271,1.2851346)"
       x1="26.538"
       y1="22.765282"
       x2="29.267735"
       y2="45.015282" />
    <linearGradient
       id="linearGradient2264">
      <stop
         style="stop-color:#d7e866;stop-opacity:1;"
         offset="0"
         id="stop2266" />
      <stop
         style="stop-color:#8cab2a;stop-opacity:1;"
         offset="1"
         id="stop2268" />
    </linearGradient>
    <linearGradient
       inkscape:collect="always"
       xlink:href="#linearGradient2264"
       id="linearGradient4996"
       gradientUnits="userSpaceOnUse"
       gradientTransform="matrix(0.4691323,0,0,0.4663025,7.68994,7.808471)"
       x1="24.103895"
       y1="15.168831"
       x2="24.103895"
       y2="32.485161" />
    <linearGradient
       inkscape:collect="always"
       id="linearGradient4222">
      <stop
         style="stop-color:#ffffff;stop-opacity:1;"
         offset="0"
         id="stop4224" />
      <stop
         style="stop-color:#ffffff;stop-opacity:0;"
         offset="1"
         id="stop4226" />
    </linearGradient>
    <linearGradient
       inkscape:collect="always"
       xlink:href="#linearGradient4222"
       id="linearGradient4993"
       gradientUnits="userSpaceOnUse"
       gradientTransform="matrix(0.2817955,0,0,0.2800956,12.18602,12.014894)"
       x1="24.138529"
       y1="8.6973467"
       x2="24.138529"
       y2="47.272728" />
  </defs>
  <sodipodi:namedview
     id="base"
     pagecolor="#ffffff"
     bordercolor="#666666"
     borderopacity="1.0"
     gridtolerance="10000"
     guidetolerance="10"
     objecttolerance="10"
     inkscape:pageopacity="0.0"
     inkscape:pageshadow="2"
     inkscape:zoom="10.375"
     inkscape:cx="-2.6506024"
     inkscape:cy="12"
     inkscape:document-units="px"
     inkscape:current-layer="layer1"
     showgrid="false"
     inkscape:window-width="640"
     inkscape:window-height="720"
     inkscape:window-x="798"
     inkscape:window-y="24" />
  <metadata
     id="metadata7">
    <rdf:RDF>
      <cc:Work
         rdf:about="">
        <dc:format>image/svg+xml</dc:format>
        <dc:type
           rdf:resource="http://purl.org/dc/dcmitype/StillImage" />
      </cc:Work>
    </rdf:RDF>
  </metadata>
  <g
     inkscape:label="Layer 1"
     inkscape:groupmode="layer"
     id="layer1">
    <g
       id="g10624"
       transform="matrix(1,0,0,1.339093,-0.6351739,-6.0401818)"
       style="opacity:0.50000000000000000">
      <rect
         y="17.579199"
         x="2.435174"
         height="2.2403224"
         width="20.4"
         id="rect2879"
         style="opacity:0.40206185;fill:url(#linearGradient10629);fill-opacity:1;fill-rule:nonzero;stroke:none;stroke-width:1;stroke-linecap:round;stroke-linejoin:miter;marker:none;marker-start:none;marker-mid:none;marker-end:none;stroke-miterlimit:4;stroke-dasharray:none;stroke-dashoffset:0;stroke-opacity:1;visibility:visible;display:inline;overflow:visible" />
      <path
         style="opacity:0.40206185;fill:url(#radialGradient10631);fill-opacity:1;fill-rule:nonzero;stroke:none;stroke-width:1;stroke-linecap:round;stroke-linejoin:miter;marker:none;marker-start:none;marker-mid:none;marker-end:none;stroke-miterlimit:4;stroke-dasharray:none;stroke-dashoffset:0;stroke-opacity:1;visibility:visible;display:inline;overflow:visible"
         d="M 2.435174,17.579297 C 2.435174,17.579297 2.435174,19.819495 2.435174,19.819495 C 1.6906071,19.823713 0.635174,19.317581 0.635174,18.699252 C 0.635174,18.080924 1.4660544,17.579297 2.435174,17.579297 z"
         id="path2881"
         sodipodi:nodetypes="cccc" />
      <path
         style="opacity:0.40206185;fill:url(#radialGradient10633);fill-opacity:1;fill-rule:nonzero;stroke:none;stroke-width:1;stroke-linecap:round;stroke-linejoin:miter;marker:none;marker-start:none;marker-mid:none;marker-end:none;stroke-miterlimit:4;stroke-dasharray:none;stroke-dashoffset:0;stroke-opacity:1;visibility:visible;display:inline;overflow:visible"
         d="M 22.835174,17.579297 C 22.835174,17.579297 22.835174,19.819495 22.835174,19.819495 C 23.57974,19.823713 24.635174,19.317581 24.635174,18.699252 C 24.635174,18.080924 23.804293,17.579297 22.835174,17.579297 z"
         id="path2883"
         sodipodi:nodetypes="cccc" />
    </g>
    <path
       style="fill:url(#linearGradient5002);fill-opacity:1;fill-rule:evenodd;stroke:#888a85;stroke-width:1.00000011999999994;stroke-linecap:butt;stroke-linejoin:round;stroke-miterlimit:4;stroke-dasharray:none;stroke-dashoffset:0;stroke-opacity:1"
       d="M 4.3164928,5.5893806 C 3.3342729,5.5893806 2.5298819,6.4167502 2.5298819,7.4210792 L 2.5298819,14.528372 L 0.77171655,14.528372 C 0.61701721,14.528372 0.50000004,14.66282 0.50000004,14.819407 L 0.50000004,18.208964 C 0.50000004,18.365552 0.61701721,18.5 0.77171655,18.5 L 23.212299,18.5 C 23.366998,18.5 23.499998,18.365553 23.499999,18.208964 L 23.499999,14.819407 C 23.499999,14.662819 23.366999,14.528372 23.212299,14.528372 L 21.495656,14.528372 L 21.5,7.5000002 C 21.5,6.0411232 20.886782,5.5000002 19.5,5.5000002 L 4.3164928,5.5893806 z"
       id="rect1316"
       sodipodi:nodetypes="ccccccccccccccc" />
    <path
       style="opacity:0.40000000000000002;fill:none;fill-opacity:1;fill-rule:evenodd;stroke:url(#linearGradient4999);stroke-width:1;stroke-linecap:round;stroke-linejoin:miter;stroke-miterlimit:4;stroke-dasharray:none;stroke-dashoffset:0;stroke-opacity:1"
       d="M 4.5978347,6.5249572 C 4.0324748,6.5249572 3.5,6.9098293 3.5,7.5384713 L 3.5,15.475044 L 1.5000002,15.475044 L 1.5452432,17.475043 L 22.500001,17.475043 L 22.44374,15.475044 L 20.5,15.475044 L 20.5,7.4750433 C 20.480352,6.7514743 20.388086,6.5368233 19.5,6.5368233 L 4.5978347,6.5249572 z"
       id="path1331"
       sodipodi:nodetypes="ccccccccccc" />
    <path
       style="fill:url(#linearGradient4996);fill-opacity:1;fill-rule:evenodd;stroke:#699536;stroke-width:1;stroke-linecap:butt;stroke-linejoin:round;stroke-miterlimit:4;stroke-dasharray:none;stroke-opacity:1;display:inline"
       d="M 16.48946,16.500009 L 16.48946,13.500009 L 20.48946,13.500009 L 20.48946,16.500009 L 23.48946,16.500009 L 23.48946,20.500009 L 20.48946,20.500009 L 20.48946,23.5 L 16.48946,23.5 L 16.48946,20.500009 L 13.5,20.500009 L 13.5,16.500009 L 16.48946,16.500009 z"
       id="path7096"
       sodipodi:nodetypes="ccccccccccccc" />
    <path
       style="fill:none;fill-opacity:1;fill-rule:evenodd;stroke:url(#linearGradient4993);stroke-width:1;stroke-linecap:butt;stroke-linejoin:miter;stroke-miterlimit:4;stroke-dasharray:none;stroke-opacity:1;display:inline;opacity:0.40000000000000002"
       d="M 17.48946,17.500009 L 17.48946,14.500009 L 19.48946,14.500009 L 19.48946,17.500009 L 22.48946,17.500009 L 22.48946,19.500009 L 19.48946,19.500009 L 19.48946,22.500009 L 17.48946,22.500009 L 17.48946,19.500009 L 14.48946,19.500009 L 14.48946,17.500009 L 17.48946,17.500009 z"
       id="path7098"
       sodipodi:nodetypes="ccccccccccccc" />
  </g>
</svg>
